!!!COM: Music21
!!!OTL: Jota
!!!OMV: pezas_jotas_jota-de-sofan_jota-de-sofan-partitura.musicxml
**kern
*I"Bagpipes
*I'Bag
*clefG^2
*k[]
*M3/4
=1
!LO:TX:a:t=Prestissimo
4cc
8ccL
8ddJ
4ee
=
4ff
4gg
4aa
=
4ff
8ggL
8ffJ
4ee
=
[2.ee
=
2.ee]
=
4cc
8ccL
8ddJ
4ee
=
4ff
4gg
4gg
=
4aa
8bbL
8aaJ
[4gg
=
2.gg_
=
2.gg]
!!linebreak:original
=
4cc
8ccL
8ddJ
4ee
=
4ff
4gg
4aa
=
4ff
8ggL
8ffJ
[4ee
=
2.ee_
=
2.ee]
=
4cc
8ccL
8ddJ
4ee
=
4ff
4gg
4gg
=
4aa
8bbL
8aaJ
4gg
=
4ccc
4gg
4aa
=
4ff
8ggL
8ffJ
4ee
!!linebreak:original
=
4gg
4ee
4ff
=
4dd
8eeL
8ddJ
[4cc
=
2.cc_
=
4.cc]
8ee
8ccL
8eeJ
=||
4ee
8ccL
8eeJ
8ccL
8eeJ
=
4ee
8ccL
8eeJ
8ccL
8eeJ
=
8ggL
8aaJ
8ggL
8ffJ
8eeL
8ffJ
=
4.dd
8ff
8ddL
8ffJ
!!linebreak:original
=
4ff
8ddL
8ffJ
8ddL
8ffJ
=
4ff
8ddL
8ffJ
8ddL
8ffJ
=
8ggL
8aaJ
8ggL
8ffJ
8eeL
8ddJ
=
4.cc
8ee
8ccL
8eeJ
=||
4ee
8ccL
8eeJ
8ccL
8eeJ
=
4ee
8ccL
8eeJ
8ccL
8eeJ
=
8ggL
8aaJ
8ggL
8ffJ
8eeL
8ffJ
!!linebreak:original
=
4.dd
8ff
8ddL
8ffJ
=
4ff
8ddL
8ffJ
8ddL
8ffJ
=
4ff
8ddL
8ffJ
8ddL
8ffJ
=
8ggL
8aaJ
8ggL
8ffJ
8eeL
8ddJ
=
2.cc
==
*-
